assets/icons/ovallight.svg

<svg width="24" height="24" viewBox="0 0 24 24" fill="none" xmlns="http://www.w3.org/2000/svg">
<path d="M8.625 12C8.625 12.2071 8.45711 12.375 8.25 12.375C8.04289 12.375 7.875 12.2071 7.875 12C7.875 11.7929 8.04289 11.625 8.25 11.625C8.45711 11.625 8.625 11.7929 8.625 12ZM8.625 12H8.25M12.375 12C12.375 12.2071 12.2071 12.375 12 12.375C11.7929 12.375 11.625 12.2071 11.625 12C11.625 11.7929 11.7929 11.625 12 11.625C12.2071 11.625 12.375 11.7929 12.375 12ZM12.375 12H12M16.125 12C16.125 12.2071 15.9571 12.375 15.75 12.375C15.5429 12.375 15.375 12.2071 15.375 12C15.375 11.7929 15.5429 11.625 15.75 11.625C15.9571 11.625 16.125 11.7929 16.125 12ZM16.125 12H15.75M21 12C21 16.5563 16.9706 20.25 12 20.25C11.1125 20.25 10.2551 20.1323 9.44517 19.9129C8.47016 20.5979 7.28201 21 6 21C5.80078 21 5.60376 20.9903 5.40967 20.9713C5.25 20.9558 5.0918 20.9339 4.93579 20.906C5.41932 20.3353 5.76277 19.6427 5.91389 18.8808C6.00454 18.4238 5.7807 17.9799 5.44684 17.6549C3.9297 16.1782 3 14.1886 3 12C3 7.44365 7.02944 3.75 12 3.75C16.9706 3.75 21 7.44365 21 12Z" stroke="#5E6875" stroke-width="1.5" stroke-linecap="round" stroke-linejoin="round"/>
</svg>

<svg width="24" height="24" viewBox="0 0 24 24" fill="none" xmlns="http://www.w3.org/2000/svg"><path d="M8.63 12a.38.38 0 1 1-.76 0 .38.38 0 0 1 .75 0m0 0h-.38m4.13 0a.38.38 0 1 1-.76 0 .38.38 0 0 1 .76 0m0 0H12m4.13 0a.38.38 0 1 1-.76 0 .38.38 0 0 1 .76 0m0 0h-.38M21 12c0 4.56-4.03 8.25-9 8.25q-1.34 0-2.55-.34a6 6 0 0 1-4.51 1q.73-.87.97-2.03c.1-.46-.13-.9-.46-1.23A8 8 0 0 1 3 12c0-4.56 4.03-8.25 9-8.25s9 3.7 9 8.25" stroke="#5E6875" stroke-width="1.5" stroke-linecap="round" stroke-linejoin="round"/></svg>
